X: 24063
T: Lonesome John
R: barndance
M: 4/4
K: Adorian
|:abag e2 g2|e2c2 A2 A2|abag e2 d2|e4 e4|
abag e2 g2|edc2 A2Ac|edc2 A2 G2|A4 A4:|
|:A2 AG A2 c2|AG A2 c2 A2|A2 AA c2 d2|e4 e4|
a2 a2 g2 e2|d2 d2 c2 A2|cBAc BAGB|A4 A4:|

